lib/preview/nrk-logo-preview-ostfold-title-right.svg

<svg width="97" height="24" viewBox="0 0 97 24" fill="none" xmlns="http://www.w3.org/2000/svg">
<path d="M0 17.9975V5.99862H4V17.9975H0ZM9.24381 7.90831L11.5081 17.9975H7.19917L4.49549 5.99862H6.91217C7.46635 5.99143 8.00406 6.18678 8.4245 6.54792C8.84562 6.89391 9.08495 7.37423 9.24381 7.90831ZM12 17.9975V5.99862H16V17.9975H12ZM19.0105 10.5616C18.5862 10.5658 18.1687 10.4548 17.8025 10.2405C17.4412 10.0316 17.1411 9.73149 16.9323 9.37013C16.7178 9.00386 16.6068 8.58629 16.611 8.16185C16.6061 7.73999 16.7172 7.32491 16.9323 6.96195C17.1433 6.60452 17.4431 6.30762 17.8025 6.10005C18.1689 5.88603 18.5862 5.77504 19.0105 5.77891C19.4322 5.77437 19.8471 5.88546 20.2102 6.10005C20.566 6.30944 20.8626 6.60609 21.072 6.96195C21.2868 7.32501 21.3979 7.74002 21.3933 8.16185C21.3973 8.58625 21.2863 9.00375 21.072 9.37013C20.8649 9.7299 20.5679 10.0298 20.2102 10.2405C19.8471 10.4555 19.4324 10.5666 19.0105 10.5616ZM22 17.9975V5.99862H26V17.9975H22ZM30.9737 12.5558C30.9848 12.5674 31.0693 12.7054 31.2272 12.9698C31.3851 13.2342 31.5906 13.5722 31.8439 13.9838C32.0974 14.3952 32.3649 14.8318 32.6463 15.2935C32.9278 15.7553 33.1926 16.1919 33.4408 16.6033C33.6881 17.0147 33.9697 17.4795 34.2857 17.9975H29.9598C29.6893 17.5581 29.4441 17.161 29.2245 16.8061C29.0048 16.4512 28.7713 16.0681 28.5238 15.6569C28.2758 15.246 28.0306 14.8461 27.7882 14.457C27.5458 14.0679 27.3375 13.7271 27.1633 13.4346C26.9883 13.1418 26.8671 12.9446 26.7997 12.8431C26.6325 12.591 26.5336 12.2998 26.5127 11.9981C26.5294 11.7085 26.6226 11.4285 26.7828 11.1866C26.8503 11.074 26.9743 10.874 27.1545 10.5867C27.3348 10.2994 27.546 9.95858 27.7882 9.56425C28.0304 9.16992 28.2756 8.76713 28.5238 8.3559C28.772 7.94467 29.0055 7.55876 29.2245 7.19823C29.4445 6.83808 29.6897 6.43811 29.9598 5.99834H34.2857L30.9396 11.457C30.8361 11.6191 30.7777 11.8059 30.7706 11.9981C30.7818 12.1998 30.8528 12.3938 30.9737 12.5558Z" fill="white"/>
<g clip-path="url(#clip0_5919_2850)">
<path d="M50.0553 5.4465L48.7494 6.86142C48.3562 6.53137 47.9114 6.25871 47.412 6.0492C46.6945 5.75072 45.8766 5.60148 44.9581 5.60148C44.0397 5.60148 43.1787 5.75646 42.444 6.06642C41.7093 6.37639 41.0865 6.81263 40.5756 7.37515C40.0648 7.93767 39.6745 8.61213 39.4047 9.39851C39.1349 10.1849 39 11.0545 39 12.0074C39 12.9602 39.132 13.8183 39.3961 14.5818C39.6084 15.1931 39.9012 15.7298 40.2657 16.1976L39 17.5867L39.8438 18.3788L41.0894 17.0213C41.474 17.3255 41.9045 17.578 42.3837 17.7675C43.1012 18.0487 43.9135 18.1894 44.8204 18.1894C45.7273 18.1894 46.5654 18.0401 47.3001 17.7416C48.0348 17.4432 48.6576 17.0184 49.1685 16.4674C49.6793 15.9163 50.0725 15.2562 50.348 14.487C50.6236 13.7179 50.7613 12.8454 50.7613 11.8696C50.7613 10.8938 50.6322 10.073 50.3739 9.3038C50.1787 8.72406 49.9147 8.20745 49.5846 7.75112L50.9335 6.27306L50.0553 5.4465ZM41.3419 9.476C41.6634 8.74128 42.1283 8.1644 42.7368 7.74538C43.3452 7.32636 44.0857 7.11685 44.9581 7.11685C45.8306 7.11685 46.508 7.31488 47.0934 7.71094C47.2714 7.83148 47.4321 7.97211 47.5871 8.12135L41.5113 14.8257C41.3563 14.5559 41.2271 14.2603 41.1267 13.936C40.9487 13.362 40.8598 12.7191 40.8598 12.0074C40.8598 11.0545 41.0205 10.2107 41.3419 9.476ZM48.6346 13.8327C48.4567 14.4182 48.1955 14.9204 47.8511 15.3394C47.5067 15.7585 47.0848 16.0856 46.5854 16.321C46.0861 16.5563 45.5092 16.674 44.8548 16.674C44.2005 16.674 43.6609 16.5649 43.1673 16.3468C42.8286 16.1976 42.5301 15.9995 42.2632 15.7642L48.3132 9.13734C48.3534 9.22057 48.4022 9.29519 48.4395 9.38416C48.7494 10.1017 48.9044 10.9368 48.9044 11.8897C48.9044 12.6014 48.8154 13.2501 48.6375 13.8355L48.6346 13.8327ZM58.8806 14.6851C58.9782 14.9319 59.0269 15.2275 59.0269 15.5719C59.0269 16.0311 58.9322 16.4272 58.7428 16.7601C58.5534 17.093 58.2922 17.3628 57.9593 17.5694C57.6264 17.7761 57.2361 17.9282 56.7883 18.0258C56.3406 18.1233 55.8642 18.1721 55.3591 18.1721C55.141 18.1721 54.9257 18.1664 54.7133 18.1549C54.5009 18.1434 54.2828 18.1147 54.059 18.0688C53.8351 18.0229 53.5998 17.9684 53.3529 17.9052C53.1061 17.8421 52.8335 17.7589 52.535 17.6555L52.4661 16.1918C52.7301 16.2837 52.9913 16.3669 53.2496 16.4415C53.5079 16.5161 53.7605 16.5793 54.0073 16.6309C54.2541 16.6826 54.4895 16.7228 54.7133 16.7515C54.9372 16.7802 55.141 16.7945 55.3246 16.7945C55.669 16.7945 55.9933 16.7601 56.2976 16.6912C56.6018 16.6223 56.8486 16.5047 57.038 16.3382C57.2275 16.1717 57.3222 15.945 57.3222 15.658C57.3222 15.5202 57.2963 15.394 57.2447 15.2792C57.193 15.1644 57.1184 15.0639 57.0208 14.9778C56.9232 14.8917 56.8056 14.8114 56.6678 14.7367C56.53 14.6621 56.3808 14.5961 56.2201 14.5387C56.1053 14.5043 55.9876 14.467 55.8671 14.4268C55.7465 14.3866 55.6231 14.3464 55.4968 14.3062C55.3706 14.2661 55.2414 14.2259 55.1094 14.1857C54.9774 14.1455 54.8425 14.1025 54.7047 14.0565C54.5669 14.0106 54.4349 13.9647 54.3086 13.9188C54.079 13.8269 53.8638 13.715 53.6629 13.583C53.462 13.451 53.2869 13.2989 53.1377 13.1267C52.9884 12.9545 52.8679 12.7449 52.7761 12.4981C52.6842 12.2513 52.6383 11.9672 52.6383 11.6457C52.6383 11.198 52.7244 10.8106 52.8966 10.4834C53.0688 10.1562 53.3128 9.88641 53.6285 9.67403C53.9442 9.46165 54.3144 9.30093 54.7392 9.19187C55.1639 9.08281 55.6346 9.02828 56.1512 9.02828C56.3578 9.02828 56.5673 9.03689 56.7797 9.05411C56.9921 9.07133 57.2074 9.1029 57.4255 9.14882C57.6436 9.19474 57.8589 9.25214 58.0712 9.32102C58.2836 9.3899 58.4989 9.47026 58.717 9.5621L58.5964 10.9569C58.4472 10.888 58.2807 10.8249 58.0971 10.7675C57.9134 10.7101 57.7326 10.6584 57.5546 10.6125C57.3767 10.5666 57.1988 10.5293 57.0208 10.5006C56.8429 10.4719 56.6793 10.4518 56.53 10.4403C56.3808 10.4288 56.243 10.4231 56.1168 10.4231C55.8298 10.4231 55.5743 10.4461 55.3505 10.492C55.1266 10.5379 54.9343 10.6068 54.7736 10.6986C54.6129 10.7905 54.4923 10.9024 54.412 11.0344C54.3316 11.1664 54.2914 11.3243 54.2914 11.508C54.2914 11.6687 54.3287 11.8122 54.4034 11.9385C54.478 12.0648 54.5756 12.1738 54.6961 12.2657C54.8166 12.3575 54.9515 12.4436 55.1008 12.524C55.2385 12.5928 55.3906 12.656 55.5571 12.7134C55.7236 12.7708 55.8958 12.8253 56.0737 12.877C56.2516 12.9286 56.4296 12.986 56.6075 13.0492C56.7855 13.1123 56.9663 13.1726 57.15 13.23C57.4025 13.3218 57.6436 13.4337 57.8732 13.5658C58.1028 13.6978 58.3037 13.8556 58.4759 14.0393C58.6481 14.223 58.783 14.4383 58.8806 14.6851ZM65.8978 16.5621C65.9781 16.5448 66.047 16.5248 66.1044 16.5018L66.0011 17.9311C65.9092 17.954 65.7973 17.9798 65.6653 18.0085C65.5333 18.0372 65.3926 18.0631 65.2434 18.086C65.0942 18.109 64.9306 18.1262 64.7526 18.1377C64.5747 18.1492 64.3939 18.1549 64.2102 18.1549C63.9691 18.1549 63.7223 18.132 63.4697 18.086C63.2172 18.0401 62.979 17.9655 62.7551 17.8622C62.5312 17.7589 62.3361 17.6154 62.1696 17.4317C62.0032 17.248 61.8683 17.0155 61.7649 16.7343C61.6616 16.453 61.61 16.1172 61.61 15.7269V10.5953H60.0946L60.284 9.2177H61.61V7.11685L63.3664 6.49693V9.2177H65.9839L65.7944 10.5953H63.3664V15.3653C63.3664 15.6523 63.4238 15.8962 63.5386 16.0971C63.6534 16.298 63.817 16.4501 64.0294 16.5535C64.2418 16.6568 64.4972 16.7084 64.7957 16.7084C64.876 16.7084 64.9621 16.7084 65.054 16.6998C65.1458 16.6941 65.2405 16.6826 65.3381 16.6654C65.4357 16.6482 65.5333 16.6309 65.6308 16.6137C65.7284 16.5965 65.8174 16.5793 65.8978 16.5621ZM72.9408 5.2743L73.0097 6.70357C72.9293 6.66913 72.8346 6.64043 72.7255 6.61747C72.6165 6.59451 72.5017 6.57155 72.3811 6.54859C72.2606 6.52563 72.1372 6.50841 72.0109 6.49693C71.8846 6.48545 71.7526 6.47971 71.6148 6.47971C71.3967 6.47971 71.1987 6.50554 71.0207 6.5572C70.8428 6.60886 70.6964 6.68922 70.5816 6.79828C70.4668 6.90734 70.3778 7.0451 70.3147 7.21156C70.2516 7.37802 70.22 7.57031 70.22 7.78843V9.2177H72.6308V10.5609H70.22V17.9999H68.4636V10.5609H67.172V9.2177H68.4636V7.97785C68.4636 7.47273 68.5353 7.03649 68.6788 6.66913C68.8223 6.30177 69.0232 5.99467 69.2815 5.74785C69.5398 5.50103 69.8412 5.32022 70.1856 5.20542C70.53 5.09062 70.8973 5.03322 71.2876 5.03322C71.4943 5.03322 71.6894 5.04183 71.8731 5.05905C72.0568 5.07627 72.2376 5.1021 72.4156 5.13654C72.5935 5.17098 72.7686 5.2169 72.9408 5.2743ZM80.2163 9.57932C79.5562 9.21196 78.7784 9.02828 77.8829 9.02828C76.9875 9.02828 76.204 9.2177 75.5324 9.59654C74.8608 9.97538 74.3385 10.5092 73.9654 11.198C73.5923 11.8868 73.4057 12.7019 73.4057 13.6433C73.4057 14.5846 73.5808 15.3968 73.9309 16.0799C74.2811 16.763 74.7833 17.2824 75.4377 17.6383C76.092 17.9942 76.8497 18.1721 77.7107 18.1721C78.5717 18.1721 79.3983 17.9827 80.0871 17.6039C80.7759 17.225 81.3126 16.6855 81.6972 15.9852C82.0818 15.2849 82.2741 14.4583 82.2741 13.5055C82.2741 12.5527 82.0961 11.8093 81.7402 11.1377C81.3843 10.4662 80.8764 9.94668 80.2163 9.57932ZM80.1129 15.348C79.8891 15.8302 79.5762 16.189 79.1744 16.4243C78.7726 16.6596 78.3134 16.7773 77.7968 16.7773C77.2802 16.7773 76.8325 16.6568 76.4537 16.4157C76.0748 16.1746 75.7763 15.813 75.5582 15.3308C75.3401 14.8487 75.231 14.2517 75.231 13.5399C75.231 12.8282 75.3401 12.2599 75.5582 11.8007C75.7763 11.3415 76.0834 10.9971 76.4795 10.7675C76.8756 10.5379 77.3491 10.4231 77.9002 10.4231C78.3364 10.4231 78.7124 10.4949 79.0281 10.6384C79.3438 10.7819 79.6078 10.9914 79.8202 11.2669C80.0326 11.5424 80.1904 11.8725 80.2937 12.257C80.3971 12.6416 80.4487 13.0693 80.4487 13.5399C80.4487 14.2632 80.3368 14.8659 80.1129 15.348ZM87.3023 16.7084L87.509 16.674L87.3368 18.0344C87.2564 18.0573 87.1559 18.0803 87.0354 18.1033C86.9149 18.1262 86.7915 18.1434 86.6652 18.1549C86.5389 18.1664 86.4069 18.1721 86.2691 18.1721C85.9936 18.1721 85.7382 18.1406 85.5028 18.0774C85.2675 18.0143 85.0637 17.9081 84.8915 17.7589C84.7193 17.6096 84.5873 17.4173 84.4954 17.182C84.4036 16.9466 84.3577 16.6625 84.3577 16.3296V5.25708L86.1141 4.99878V15.5547C86.1141 15.7613 86.1285 15.9393 86.1572 16.0885C86.1859 16.2377 86.2347 16.3612 86.3036 16.4587C86.3724 16.5563 86.4585 16.6281 86.5619 16.674C86.6652 16.7199 86.7915 16.7429 86.9407 16.7429C87.0096 16.7429 87.0698 16.7429 87.1215 16.7343C87.1732 16.7285 87.2334 16.7199 87.3023 16.7084ZM95.2063 5.25708V9.4473C95.1891 9.44156 95.1719 9.43295 95.1547 9.42434C94.8562 9.30954 94.5261 9.21483 94.1645 9.14021C93.8029 9.06559 93.404 9.02828 92.9677 9.02828C92.1986 9.02828 91.4839 9.2177 90.8238 9.59654C90.1637 9.97538 89.6328 10.5236 89.231 11.2411C88.8292 11.9586 88.6283 12.8339 88.6283 13.8671C88.6283 14.7511 88.7804 15.5145 89.0846 16.1574C89.3888 16.8003 89.8251 17.2968 90.3933 17.6469C90.9616 17.9971 91.6418 18.1721 92.4339 18.1721C92.8931 18.1721 93.3265 18.1147 93.734 17.9999C94.1416 17.8851 94.5405 17.7072 94.9308 17.4661C95.06 17.3858 95.1891 17.2968 95.3183 17.2049L95.5335 17.9999H96.9628V5.016L95.2063 5.25708ZM94.2851 16.5276C93.8316 16.6941 93.4212 16.7773 93.0538 16.7773C92.5028 16.7773 92.0321 16.6654 91.6418 16.4415C91.2515 16.2177 90.953 15.8733 90.7463 15.4083C90.5397 14.9434 90.4364 14.3608 90.4364 13.6605C90.4364 12.9602 90.5512 12.3546 90.7808 11.8782C91.0104 11.4018 91.3404 11.0402 91.7709 10.7933C92.2014 10.5465 92.7152 10.4231 93.3121 10.4231C93.5991 10.4231 93.8746 10.4432 94.1387 10.4834C94.4027 10.5236 94.6696 10.5867 94.9394 10.6728C95.0227 10.6986 95.1174 10.7359 95.2063 10.7675V16.0742C94.882 16.2664 94.5749 16.4214 94.2851 16.5276Z" fill="white"/>
</g>
<defs>
<clipPath id="clip0_5919_2850">
<rect width="57.9628" height="13.38" fill="white" transform="translate(39 4.99878)"/>
</clipPath>
</defs>
</svg>

<svg xmlns="http://www.w3.org/2000/svg" viewBox="0 0 97 24"><path fill="#fff" d="M0 17.997V6h4v11.998H0ZM9.244 7.908l2.264 10.09H7.2l-2.704-12h2.417a2.276 2.276 0 0 1 1.513.55c.42.346.66.826.819 1.36ZM12 17.998v-12h4v12h-4Zm7.01-7.436a2.382 2.382 0 0 1-2.4-2.4 2.301 2.301 0 0 1 .322-1.2A2.41 2.41 0 0 1 20.21 6.1c.356.21.653.506.862.862.215.363.326.778.321 1.2a2.35 2.35 0 0 1-.321 1.208 2.4 2.4 0 0 1-.862.87 2.3 2.3 0 0 1-1.2.322ZM22 17.997V6h4v11.998h-4Zm8.974-5.441c.01.011.095.15.253.414s.364.602.617 1.014a315.936 315.936 0 0 1 1.597 2.62c.247.41.529.876.845 1.393H29.96c-.27-.439-.516-.836-.736-1.19-.22-.356-.453-.739-.7-1.15-.248-.411-.493-.81-.736-1.2-.242-.39-.45-.73-.625-1.022-.175-.293-.296-.49-.363-.592a1.747 1.747 0 0 1-.287-.845c.016-.29.11-.57.27-.811.067-.113.191-.313.371-.6a182.106 182.106 0 0 0 1.37-2.23l.7-1.159.736-1.2h4.326l-3.346 5.459a1.08 1.08 0 0 0-.17.541c.012.202.083.396.204.558Z"/><g clip-path="url(#a)"><path fill="#fff" d="M50.055 5.447 48.75 6.86a5.189 5.189 0 0 0-1.337-.812c-.718-.298-1.535-.448-2.454-.448-.918 0-1.78.155-2.514.465a5.236 5.236 0 0 0-1.868 1.31 5.737 5.737 0 0 0-1.171 2.023c-.27.786-.405 1.656-.405 2.608 0 .953.132 1.811.396 2.575a5.59 5.59 0 0 0 .87 1.616L39 17.587l.844.792 1.245-1.358c.385.305.816.557 1.295.746.717.282 1.53.422 2.436.422.907 0 1.745-.149 2.48-.447a5.154 5.154 0 0 0 1.869-1.275 5.7 5.7 0 0 0 1.179-1.98c.276-.77.413-1.642.413-2.617 0-.976-.129-1.797-.387-2.566a5.77 5.77 0 0 0-.79-1.553l1.35-1.478-.879-.826Zm-8.713 4.029c.321-.735.786-1.312 1.395-1.73.608-.42 1.349-.63 2.221-.63.873 0 1.55.199 2.135.595.178.12.34.261.494.41l-6.076 6.705a4.376 4.376 0 0 1-.384-.89 6.498 6.498 0 0 1-.267-1.929c0-.952.16-1.796.482-2.531Zm7.293 4.357a4.32 4.32 0 0 1-.784 1.506c-.344.42-.766.747-1.266.982-.499.235-1.076.353-1.73.353-.654 0-1.194-.11-1.688-.327a3.486 3.486 0 0 1-.904-.583l6.05-6.627c.04.084.09.158.127.247.31.718.464 1.553.464 2.506 0 .711-.089 1.36-.267 1.945l-.002-.002Zm10.246.852c.097.247.146.542.146.887 0 .46-.095.855-.284 1.188a2.25 2.25 0 0 1-.784.81 3.693 3.693 0 0 1-1.17.456 6.705 6.705 0 0 1-1.43.146c-.218 0-.433-.006-.646-.017a4.455 4.455 0 0 1-.654-.086c-.224-.046-.46-.1-.706-.164a10.37 10.37 0 0 1-.818-.25l-.069-1.463c.264.092.525.175.784.25.258.074.51.137.757.189.247.052.483.092.706.12.224.03.428.043.612.043.344 0 .668-.034.973-.103.304-.069.55-.186.74-.353.19-.166.284-.393.284-.68a.88.88 0 0 0-.301-.68 1.9 1.9 0 0 0-.353-.241 3.2 3.2 0 0 0-.448-.198 12.007 12.007 0 0 1-.353-.112 28.638 28.638 0 0 0-.758-.241 15.992 15.992 0 0 1-.8-.267 3.626 3.626 0 0 1-.646-.336 2.523 2.523 0 0 1-.525-.456 2.028 2.028 0 0 1-.362-.629 2.434 2.434 0 0 1-.138-.852c0-.448.086-.835.259-1.163.172-.327.416-.597.732-.809a3.557 3.557 0 0 1 1.11-.482c.425-.11.896-.164 1.412-.164.207 0 .416.009.629.026.212.017.427.049.645.095.219.046.434.103.646.172.213.069.428.15.646.241l-.12 1.395a4.14 4.14 0 0 0-.5-.19 11.18 11.18 0 0 0-.542-.154 5.886 5.886 0 0 0-1.438-.19c-.287 0-.543.023-.767.069a1.946 1.946 0 0 0-.576.207.979.979 0 0 0-.362.335.893.893 0 0 0-.12.474c0 .16.037.304.111.43.075.127.173.236.293.328.12.091.256.178.405.258.138.069.29.132.456.19.167.057.339.111.517.163a9.5 9.5 0 0 1 .534.172c.178.063.358.124.542.181.253.092.494.204.723.336.23.132.43.29.603.473.172.184.307.4.405.646Zm7.017 1.877c.08-.017.149-.037.206-.06l-.103 1.43c-.092.022-.204.048-.336.077a5.61 5.61 0 0 1-.913.13 8.408 8.408 0 0 1-.542.016c-.24 0-.488-.023-.74-.069a2.963 2.963 0 0 1-.715-.224 1.8 1.8 0 0 1-.585-.43 2.11 2.11 0 0 1-.405-.698 2.927 2.927 0 0 1-.155-1.007v-5.132h-1.515l.189-1.377h1.326V7.117l1.756-.62v2.72h2.618l-.19 1.378h-2.428v4.77c0 .287.058.531.173.732.114.201.278.353.49.456.213.104.468.155.767.155.08 0 .166 0 .258-.008.092-.006.186-.017.284-.035l.293-.051c.097-.018.186-.035.267-.052ZM72.94 5.274l.069 1.43a1.52 1.52 0 0 0-.285-.087 18.064 18.064 0 0 0-.344-.068 3.828 3.828 0 0 0-.766-.07c-.218 0-.416.027-.594.078a1.05 1.05 0 0 0-.44.241c-.114.11-.203.247-.266.414a1.622 1.622 0 0 0-.095.576v1.43h2.41v1.343h-2.41V18h-1.756v-7.44h-1.292V9.219h1.292v-1.24c0-.505.071-.942.215-1.309.143-.367.344-.674.602-.921.259-.247.56-.428.905-.543a3.463 3.463 0 0 1 1.102-.172 5.61 5.61 0 0 1 1.128.103c.177.035.353.08.525.138Zm7.275 4.305c-.66-.367-1.438-.55-2.333-.55-.895 0-1.679.189-2.35.568a3.971 3.971 0 0 0-1.568 1.601c-.373.689-.56 1.504-.56 2.445 0 .942.176 1.754.526 2.437.35.683.852 1.202 1.507 1.558.654.356 1.412.534 2.273.534.86 0 1.687-.19 2.376-.568a4.011 4.011 0 0 0 1.61-1.619c.385-.7.577-1.527.577-2.48 0-.952-.178-1.696-.534-2.367a3.762 3.762 0 0 0-1.524-1.559Zm-.103 5.769c-.224.482-.537.841-.939 1.076a2.675 2.675 0 0 1-1.377.353c-.517 0-.965-.12-1.343-.361-.38-.241-.678-.603-.896-1.085-.218-.482-.327-1.08-.327-1.791 0-.712.11-1.28.327-1.74.218-.459.525-.803.921-1.033.397-.23.87-.344 1.421-.344.436 0 .812.072 1.128.215.316.144.58.353.792.629.213.275.37.606.474.99.103.385.155.812.155 1.283 0 .723-.112 1.326-.336 1.808Zm7.19 1.36.206-.034-.172 1.36a3.853 3.853 0 0 1-1.068.138c-.275 0-.53-.031-.766-.095a1.52 1.52 0 0 1-.612-.318 1.441 1.441 0 0 1-.396-.577 2.349 2.349 0 0 1-.137-.852V5.257L86.114 5v10.556c0 .206.014.384.043.534.029.149.078.272.147.37a.62.62 0 0 0 .258.215c.103.046.23.069.379.069.069 0 .129 0 .18-.009.052-.006.112-.014.181-.026Zm7.903-11.45v4.19a.406.406 0 0 1-.051-.024 5.932 5.932 0 0 0-2.187-.396c-.77 0-1.484.19-2.144.569-.66.378-1.191.927-1.593 1.644-.402.718-.603 1.593-.603 2.626 0 .884.152 1.647.457 2.29.304.643.74 1.14 1.308 1.49.569.35 1.249.525 2.04.525.46 0 .893-.057 1.301-.172a4.698 4.698 0 0 0 1.197-.534c.129-.08.258-.17.387-.261l.216.795h1.429V5.016l-1.757.241Zm-.92 11.27c-.454.166-.865.25-1.232.25-.551 0-1.022-.113-1.412-.336-.39-.224-.689-.569-.896-1.034-.206-.465-.31-1.047-.31-1.747 0-.7.115-1.306.345-1.783.23-.476.56-.838.99-1.085.43-.246.944-.37 1.541-.37a5.215 5.215 0 0 1 1.627.25c.084.026.178.063.267.095v5.306a5.672 5.672 0 0 1-.92.454Z"/></g><defs><clipPath id="a"><path fill="#fff" d="M39 4.999h57.963v13.38H39z"/></clipPath></defs></svg>
